X: 21966
T: Kitty Lie Over
R: jig
M: 6/8
K: Dmajor
|:(d/B/)|AFD DFA|B2d F2A|AFD DEF|GFG EFG|
AFD DFA|B2d F2A|Bdd F2E|FDD D2:|
|:fed dB/c/d|efe efg|fed daa|agf eag|
fed B2d|A2d F2A|Bdd F2E|FDD D2:|

